style-guide/assets/xd-icons-controls-small.svg

<?xml version="1.0" encoding="UTF-8"?>
<svg width="18px" height="18px" viewBox="0 0 18 18" version="1.1" xmlns="http://www.w3.org/2000/svg" xmlns:xlink="http://www.w3.org/1999/xlink">
    <!-- Generator: Sketch 51.3 (57544) - http://www.bohemiancoding.com/sketch -->
    <title>controls</title>
    <desc>Created with Sketch.</desc>
    <defs>
        <path d="M12,4 L16,4 C16.552,4 17,3.553 17,3 C17,2.447 16.552,2 16,2 L12,2 C11.448,2 11,2.447 11,3 C11,3.553 11.448,4 12,4 M2,4 L7,4 C7,4.553 7.448,5 8,5 C8.552,5 9,4.553 9,4 L9,2 C9,1.447 8.552,1 8,1 C7.448,1 7,1.447 7,2 L2,2 C1.448,2 1,2.447 1,3 C1,3.553 1.448,4 2,4 M16,14 L12,14 C11.448,14 11,14.447 11,15 C11,15.553 11.448,16 12,16 L16,16 C16.552,16 17,15.553 17,15 C17,14.447 16.552,14 16,14 M16,7 C15.448,7 15,7.447 15,8 L2,8 C1.448,8 1,8.447 1,9 C1,9.553 1.448,10 2,10 L15,10 C15,10.553 15.448,11 16,11 C16.552,11 17,10.553 17,10 L17,8 C17,7.447 16.552,7 16,7 M8,13 C7.448,13 7,13.447 7,14 L2,14 C1.448,14 1,14.447 1,15 C1,15.553 1.448,16 2,16 L7,16 C7,16.553 7.448,17 8,17 C8.552,17 9,16.553 9,16 L9,14 C9,13.447 8.552,13 8,13" id="path-1"></path>
    </defs>
    <g id="controls" stroke="none" stroke-width="1" fill="none" fill-rule="evenodd">
        <mask id="mask-2" fill="white">
            <use xlink:href="#path-1"></use>
        </mask>
        <use id="icons/18px/Controls" fill="#000000" xlink:href="#path-1"></use>
    </g>
</svg>

<svg viewBox="0 0 18 18" xmlns="http://www.w3.org/2000/svg" xmlns:xlink="http://www.w3.org/1999/xlink">
  <path d="M12 4h4a1 1 0 1 0 0-2h-4a1 1 0 1 0 0 2M2 4h5a1 1 0 1 0 2 0V2a1 1 0 1 0-2 0H2a1 1 0 1 0 0 2m14 10h-4a1 1 0 1 0 0 2h4a1 1 0 1 0 0-2m0-7a1 1 0 0 0-1 1H2a1 1 0 1 0 0 2h13a1 1 0 1 0 2 0V8a1 1 0 0 0-1-1m-8 6a1 1 0 0 0-1 1H2a1 1 0 1 0 0 2h5a1 1 0 1 0 2 0v-2a1 1 0 0 0-1-1"/>
</svg>
